X: 325
T: Qing ge
L: 1/8
M: 2/4
K: A
cB2E [I:setbarnb 1]| 
e4 | 
cB2E | 
e4 | 
cB2A | 
B2e a | 
GB2F | 
E4 | 
A2G F | 
E2E2 | 
B2B3/ e/ | 
e4 | 
c B/ A/E2 | 
B> B e A | 
GB2F | 
E4 |]

@@@ Tune index: 9199
